svgs/solid/rabbit.svg

<svg xmlns="http://www.w3.org/2000/svg" viewBox="0 0 512 512"><!--! Font Awesome Pro 6.1.2 by @fontawesome - https://fontawesome.com License - https://fontawesome.com/license (Commercial License) Copyright 2022 Fonticons, Inc. --><path d="M321.4 128C326.3 128 331 128.3 335.8 128.9C336.9 104.9 333.1 81.08 324.8 58.8C332.5 41.04 343.5 24.6 357.6 10.47L362.2 5.826C365.9 2.096 370.1 .0003 376.2 0C385.5-.0003 393.5 6.373 395.5 15.37L396.6 19.82C406.4 62.26 398.4 106.3 375.6 142.2C381 145.3 386.3 148.8 391.2 152.8L425.8 181C439.8 192.5 448 209.6 448 227.7C448 261 421 288 387.7 288H352V313.8L413.7 468.1C420.3 484.5 412.3 503.1 395.9 509.7C379.5 516.3 360.9 508.3 354.3 491.9L314.8 393.3L265.6 448H288C305.7 448 320 462.3 320 480C320 497.7 305.7 512 288 512H160C131.5 512 107.4 493.4 99.11 467.8C88.83 480.1 73.34 488 56 488C25.07 488 0 462.9 0 432C0 401.1 25.07 376 56 376C73.44 376 89.01 383.1 99.28 396.5C114 317.7 176.8 255.9 256 242.7V193.4C256 182.5 258.7 172.2 263.4 163.2C229.1 126.7 213.1 76.37 220.2 26.39L220.9 21.48C222.7 9.154 233.2-.0003 245.7 0C252.3 0 258.6 2.608 263.3 7.256L266.4 10.33C298.2 41.83 314.3 85.09 311.8 128.7C314.1 128.2 318.2 127.1 321.4 127.1L321.4 128zM368 224C376.8 224 384 216.8 384 208C384 199.2 376.8 192 368 192C359.2 192 352 199.2 352 208C352 216.8 359.2 224 368 224z"/></svg>

<svg xmlns="http://www.w3.org/2000/svg" viewBox="0 0 512 512"><!--! Font Awesome Pro 6.2.0 by @fontawesome - https://fontawesome.com License - https://fontawesome.com/license (Commercial License) Copyright 2022 Fonticons, Inc. --><path d="M321.4 128c4.8 0 9.6 .3 14.3 .9c1.1-24-2.6-47.9-10.9-70.1c7.6-17.8 18.6-34.2 32.7-48.3l4.6-4.6c3.7-3.7 8.8-5.8 14-5.8c9.2 0 17.2 6.4 19.3 15.4l1 4.4c9.8 42.4 1.8 86.5-21 122.4c5.5 3.1 10.7 6.6 15.6 10.6L425.8 181c14 11.4 22.2 28.6 22.2 46.7c0 33.3-27 60.3-60.3 60.3H352v25.8l61.7 154.3c6.6 16.4-1.4 35-17.8 41.6s-35-1.4-41.6-17.8l-39.4-98.6L265.6 448H288c17.7 0 32 14.3 32 32s-14.3 32-32 32H208 160c-28.5 0-52.6-18.6-60.9-44.2C88.8 480.1 73.3 488 56 488c-30.9 0-56-25.1-56-56s25.1-56 56-56c17.4 0 33 8 43.3 20.5C114 317.7 176.8 255.9 256 242.7V193.4c0-10.9 2.7-21.2 7.4-30.2c-34.3-36.5-50.3-86.8-43.2-136.8l.7-4.9C222.7 9.2 233.2 0 245.7 0c6.6 0 12.9 2.6 17.6 7.3l3.1 3.1c31.8 31.5 47.9 74.8 45.4 118.4c3.1-.5 6.3-.7 9.6-.7zM368 224c8.8 0 16-7.2 16-16s-7.2-16-16-16s-16 7.2-16 16s7.2 16 16 16z"/></svg>
